X:172
T:Essequibo River
M:C|
L:1/8
Q:1/4=3D150
K:C
CCCC EEEE|GGGG c4|CCCD E2EE|FD3 B,C3|
CCCC EEEE|GGGG c4|CCCD E2EE|FD3 B,C3|
cc2A cc2A|ccAc-c4|CCCD E2EE|FD3 B,C3||
